assets/toolkit/images/symbol1.svg

<svg class="gold-stroke" xmlns="http://www.w3.org/2000/svg" viewBox="0 0 132 132"><style>.st9{fill:#000}</style><path class="st9" d="M94.2 0H37.8L0 37.8v56.5L37.8 132h56.5L132 94.2V37.8L94.2 0zM126 63.5h-23L96.5 57l23.1-23.1 6.4 6.4v23.2zm-60 35L60.5 93l5.5-5.5 5.5 5.5-5.5 5.5zm0-18l-9 9-5.5-5.5L66 69.5 80.5 84 75 89.5l-9-9zM51.5 66l-9-9 5.5-5.5L62.5 66 48 80.5 42.5 75l9-9zM39 71.5L33.5 66l5.5-5.5 5.5 5.5-5.5 5.5zm27-38l5.5 5.5-5.5 5.5-5.5-5.5 5.5-5.5zm0 18l9-9 5.5 5.5L66 62.5 51.5 48l5.5-5.5 9 9zm18-7L78.5 39l23.1-23.1 5.5 5.5L84 44.5zm26.6-19.6l5.5 5.5L93 53.5 87.5 48l23.1-23.1zM48 44.5L24.9 21.4l5.5-5.5L53.5 39 48 44.5zM44.5 48L39 53.5 15.9 30.4l5.5-5.5L44.5 48zm0 36l-23.1 23.1-5.5-5.5L39 78.5l5.5 5.5zm3.5 3.5l5.5 5.5-23.1 23.1-5.5-5.5L48 87.5zm36 0l23.1 23.1-5.5 5.5L78.5 93l5.5-5.5zm3.5-3.5l5.5-5.5 23.1 23.1-5.5 5.5L87.5 84zM84 80.5L69.5 66 84 51.5l5.5 5.5-9 9 9 9-5.5 5.5zM87.5 66l5.5-5.5 5.5 5.5-5.5 5.5-5.5-5.5zm10.6-53.6L75 35.5 68.5 29V6h23.3l6.3 6.4zM40.2 6h23.3v23L57 35.5 33.9 12.4 40.2 6zM12.4 33.9L35.5 57 29 63.5H6V40.2l6.4-6.3zM6 68.5h23l6.5 6.5-23.1 23.1L6 91.8V68.5zm27.9 51.1L57 96.5l6.5 6.5v23H40.2l-6.3-6.4zm57.9 6.4H68.5v-23l6.5-6.5 23.1 23.1-6.3 6.4zm27.8-27.9L96.5 75l6.5-6.5h23v23.3l-6.4 6.3z"/></svg>

<?xml version="1.0" encoding="utf-8"?>
<!-- Generator: Adobe Illustrator 21.1.0, SVG Export Plug-In . SVG Version: 6.00 Build 0)  -->
<svg version="1.1" class="gold-stroke" xmlns="http://www.w3.org/2000/svg" xmlns:xlink="http://www.w3.org/1999/xlink" x="0px" y="0px"
	 viewBox="0 0 132 132" style="enable-background:new 0 0 132 132;" xml:space="preserve">
<style type="text/css">
	.st9{fill:#000000;}
</style>
<g>
	<path class="st9" d="M94.2,0H37.8L0,37.8v56.5L37.8,132h56.5L132,94.2V37.8L94.2,0z M126,63.5h-23L96.5,57l23.1-23.1l6.4,6.4V63.5z
		 M66,98.5L60.5,93l5.5-5.5l5.5,5.5L66,98.5z M66,80.5l-9,9L51.5,84L66,69.5L80.5,84L75,89.5L66,80.5z M51.5,66l-9-9l5.5-5.5
		L62.5,66L48,80.5L42.5,75L51.5,66z M39,71.5L33.5,66l5.5-5.5l5.5,5.5L39,71.5z M66,33.5l5.5,5.5L66,44.5L60.5,39L66,33.5z M66,51.5
		l9-9l5.5,5.5L66,62.5L51.5,48l5.5-5.5L66,51.5z M84,44.5L78.5,39l23.1-23.1l5.5,5.5L84,44.5z M110.6,24.9l5.5,5.5L93,53.5L87.5,48
		L110.6,24.9z M48,44.5L24.9,21.4l5.5-5.5L53.5,39L48,44.5z M44.5,48L39,53.5L15.9,30.4l5.5-5.5L44.5,48z M44.5,84l-23.1,23.1
		l-5.5-5.5L39,78.5L44.5,84z M48,87.5l5.5,5.5l-23.1,23.1l-5.5-5.5L48,87.5z M84,87.5l23.1,23.1l-5.5,5.5L78.5,93L84,87.5z M87.5,84
		l5.5-5.5l23.1,23.1l-5.5,5.5L87.5,84z M84,80.5L69.5,66L84,51.5l5.5,5.5l-9,9l9,9L84,80.5z M87.5,66l5.5-5.5l5.5,5.5L93,71.5
		L87.5,66z M98.1,12.4L75,35.5L68.5,29V6h23.3L98.1,12.4z M40.2,6h23.3v23L57,35.5L33.9,12.4L40.2,6z M12.4,33.9L35.5,57L29,63.5H6
		V40.2L12.4,33.9z M6,68.5h23l6.5,6.5L12.4,98.1L6,91.8V68.5z M33.9,119.6L57,96.5l6.5,6.5v23H40.2L33.9,119.6z M91.8,126H68.5v-23
		l6.5-6.5l23.1,23.1L91.8,126z M119.6,98.1L96.5,75l6.5-6.5h23v23.3L119.6,98.1z"/>
</g>
</svg>
